packages/components/bolt-icons/src/svgs/pega/pega-building-barn.svg

<svg viewBox="0 0 32 32" xmlns="http://www.w3.org/2000/svg"><path fill="#fff" d="m27.85 1.88a4.13 4.13 0 0 0 -4.15 4.12v1.52h-14.15a1.36 1.36 0 0 0 -.29.06l-.12.06-.14.06-8.6 6a1 1 0 0 0 -.43.82v14.6a1 1 0 0 0 1 1h30.03a1 1 0 0 0 1-1v-23.12a4.13 4.13 0 0 0 -4.15-4.12zm0 2a2.13 2.13 0 0 1 2.15 2.12v1.16h-4.3v-1.16a2.13 2.13 0 0 1 2.15-2.12zm-9.77 9.86-5.52-4.22h11.14v4.22zm-16.08 1.26 7.57-5.24 7.17 5.48v12.88h-1.9v-9.44a1 1 0 0 0 -1-1h-8.67a1 1 0 0 0 -1 1v9.44h-2.17zm4.17 13.12v-8.44h6.67v8.44zm12.57 0v-12.38h5v12.38zm7 0v-19h4.26v1.62h-2.26a1 1 0 0 0 0 2h2.26v1.59h-2.26a1 1 0 1 0 0 2h2.26v1.67h-2.26a1 1 0 0 0 0 2h2.26v1.59h-2.26a1 1 0 0 0 0 2h2.26v4.58z"/></svg>

<svg id="icon-building-barn" data-name="building-barn" xmlns="http://www.w3.org/2000/svg" viewBox="0 0 32 32"><path d="M27.85,1.88A4.13,4.13,0,0,0,23.7,6V7.52H9.55a1.36,1.36,0,0,0-.29.06l-.12.06L9,7.7l-8.6,6a1,1,0,0,0-.43.82V29.12a1,1,0,0,0,1,1H31a1,1,0,0,0,1-1V6A4.13,4.13,0,0,0,27.85,1.88Zm0,2A2.13,2.13,0,0,1,30,6V7.16H25.7V6A2.13,2.13,0,0,1,27.85,3.88Zm-9.77,9.86L12.56,9.52H23.7v4.22ZM2,15,9.57,9.76l7.17,5.48V28.12h-1.9V18.68a1,1,0,0,0-1-1H5.17a1,1,0,0,0-1,1v9.44H2ZM6.17,28.12V19.68h6.67v8.44Zm12.57,0V15.74h5V28.12Zm7,0v-19H30v1.62H27.74a1,1,0,0,0,0,2H30v1.59H27.74a1,1,0,1,0,0,2H30V18H27.74a1,1,0,0,0,0,2H30v1.59H27.74a1,1,0,0,0,0,2H30v4.58Z"/></svg>
